X:11
T:Campouriez Bourr\'ee
R:bourr\'ee (Auvergne)
M:3/8
L:1/16
K:C
g3fef | g2 a4 | gagfef | gfedc2 | g3fef | g2 a4 | gagfed | c6 :| 
K:Cm
e4 d2 | c2d2e2 | f2d2e2 | c4 =B2 | e4 d2 | c2d2e2 | f2d2e2 | c6 :| 

